X:63
T:Melody Composition Exercise
%%score 1 { 2 | 3 }
L:1/4
M:4/4
I:linebreak $
K:G
V:1 treble transpose=-2 nm="B♭ Trumpet" snm="B♭ Tpt."
%%V:1 treble  nm="B♭ Trumpet" snm="B♭ Tpt."
%%MIDI program 56 % Trumpet
V:2 treble nm="Piano" snm="Pno."
V:3 bass 
V:1
%%d>c A_B|B4|c>_B G_A|A4|$_B>_A =F_G|G4|c2 A2|G4||
[K:A]e>d B=c|c4|d>=c A_B|B4|$=c>_B =G_A|A4|d2 B2|A4||
V:2
%%MIDI chordvol 0
"Am7"[cg]2"D7"[fc]2|"Gmaj7"[Bf]4|"Gm7"[_B=f]2"C7"[e_B]2|"Fmaj7"[AE]4|$"Fm7"[A_e]2"Bb7"[d_A]2|"Ebmaj7"[Gd]4|"Am7"[cG]2"D7"[Fc]2|"Gmaj7"[BF]4|] 
V:3
      A,2      D,2 |        G,,4|      G,2        C,2  |        F,,4|       F,2       _B,,2 |        _E,,4|      A,2      D,2 |        G,,4|]


